X: 1032
T: Hinchy's Delight   #2
R: double jig
%S: s:2 b:13(5+4+4)
B: O'Neill's 1850 #1032
O: F.O'Neill
Z: henrik.norbeck@mailbox.swipnet.se
M: 6/8
L: 1/8
K: G
"^A"[|] A \
| BAB GBG | AFD F2G | AGA fed |[1,3 cAG FGA :|[2,4 cAF G2 :|
"^B"|:\
d | gfg afd | gfg a2d | gfg b2g | a2g fga ||
y2| geg fed | fed cde | fef ded | cAF G2 :|
